pkny-favicon.svg

<svg width="200" height="200" viewBox="0 0 200 200" fill="none" xmlns="http://www.w3.org/2000/svg">
<rect width="200" height="200" fill="#1BBD5C"/>
<rect width="200" height="200" fill="#1BBD5C"/>
<path d="M148.555 58.0278C144.677 53.623 139.773 50.2317 134.273 48.1505C128.372 46.0036 122.129 44.9372 115.847 45.0029C98.9654 45.0029 86.7541 50.3575 79.2129 61.0669H78.3407L75.07 48.042H38V71.9211H54.3543V200H82.4838V155.498C85.9338 157.099 89.6114 158.161 93.3867 158.646C97.7901 159.3 102.236 159.626 106.688 159.623C114.518 159.758 122.298 158.356 129.584 155.498C136.098 152.868 141.917 148.783 146.593 143.558C151.43 138.027 155.068 131.56 157.278 124.564C159.851 116.457 161.103 107.992 160.985 99.4906C161.145 91.2319 160.042 82.997 157.714 75.0688C155.904 68.8084 152.783 63.0006 148.555 58.0278ZM129.693 115.555C128.472 119.766 126.394 123.682 123.588 127.06C121.127 129.982 117.982 132.256 114.429 133.681C110.816 135.082 106.968 135.782 103.09 135.743C99.1584 135.748 95.2408 135.274 91.4243 134.332C88.2483 133.688 85.2411 132.394 82.5928 130.533V85.3802C84.0735 80.2121 87.4619 75.7921 92.0784 73.0065C96.6493 70.2618 101.896 68.834 107.233 68.8819C110.575 68.8049 113.891 69.4658 116.945 70.8171C119.999 72.1683 122.715 74.1764 124.896 76.6969C129.566 81.9069 131.892 89.2877 131.874 98.8394C131.986 104.488 131.251 110.122 129.693 115.555V115.555Z" fill="white"/>
</svg>

<?xml version="1.0" encoding="utf-8"?>
<!-- Generator: Adobe Illustrator 26.0.2, SVG Export Plug-In . SVG Version: 6.00 Build 0)  -->
<svg version="1.1" id="Layer_1" xmlns="http://www.w3.org/2000/svg" xmlns:xlink="http://www.w3.org/1999/xlink" x="0px" y="0px"
	 viewBox="0 0 200 200" style="enable-background:new 0 0 200 200;" xml:space="preserve">
<style type="text/css">
	.st0{fill:#1BBD5C;}
	.st1{fill:#FFFFFF;}
</style>
<rect class="st0" width="200" height="200"/>
<rect class="st0" width="200" height="200"/>
<path class="st1" d="M148.6,58c-3.9-4.4-8.8-7.8-14.3-9.9c-5.9-2.1-12.1-3.2-18.4-3.1C99,45,86.8,50.4,79.2,61.1h-0.9l-3.3-13H38
	v23.9h16.4V200h28.1v-44.5c3.4,1.6,7.1,2.7,10.9,3.1c4.4,0.7,8.8,1,13.3,1c7.8,0.1,15.6-1.3,22.9-4.1c6.5-2.6,12.3-6.7,17-11.9
	c4.8-5.5,8.5-12,10.7-19c2.6-8.1,3.8-16.6,3.7-25.1c0.2-8.3-0.9-16.5-3.3-24.4C155.9,68.8,152.8,63,148.6,58z M129.7,115.6
	c-1.2,4.2-3.3,8.1-6.1,11.5c-2.5,2.9-5.6,5.2-9.2,6.6c-3.6,1.4-7.5,2.1-11.3,2.1c-3.9,0-7.8-0.5-11.7-1.4c-3.2-0.6-6.2-1.9-8.8-3.8
	V85.4c1.5-5.2,4.9-9.6,9.5-12.4c4.6-2.7,9.8-4.2,15.2-4.1c3.3-0.1,6.7,0.6,9.7,1.9c3.1,1.4,5.8,3.4,8,5.9c4.7,5.2,7,12.6,7,22.1
	C132,104.5,131.3,110.1,129.7,115.6L129.7,115.6z"/>
</svg>
